X:1
T:Title
%%score { 1 | 2 }
L:1/8
M:4/4
K:Eb
V:1 treble nm="Grand Piano"
V:2 bass 
V:1
 z4 z2[Q:1/4=100] [DB]2 | [DB]3 [DB] [DB]2 [DB]2 | [Ec]6 [Ec]2 | [Ec]3 [Ec] [Ec]2 [Ec]2 | %4
 [Gd]6 [Gd]2 | [Ge]6 [Ge]2 | [Af]8 | f4 f4 |[M:11/8] f-f-f-f-f-f- f3 [DB]2 | %9
[M:4/4] [CEB]3 [CEB] [CFB]2 [CGB]2 |[M:9/8] [DFB]8- [DFB] |] %11
V:2
 z4 z2 [B,,F,]2 | [B,,F,]3 [B,,F,] [B,,F,]2 [B,,F,]2 | [A,,A,]6 [A,,A,]2 | %3
 [A,,A,]3 [A,,A,] [A,,A,]2 [A,,A,]2 | [G,,B,]6 [G,B,]2 | [E,B,]6 [E,B,]2 | [_D,_D]8 | %7
 [_DA]4 [CDA]4 |[M:11/8] [B,DB]-[B,DB]-[B,DB]-[B,DB]-[B,DB]-[B,DB]- [B,DB]3[K:bass] [B,,B,]2 | %9
[M:4/4] [B,,G,]3 [B,,G,] [B,,F,]2 [B,,E,]2 |[M:9/8] [B,,F,]8- [B,,F,] |] %11

